tools/download-figma-icons/icons/solid/heat.svg

<svg width="24" height="24" viewBox="0 0 24 24" fill="none" xmlns="http://www.w3.org/2000/svg">
<path fill-rule="evenodd" clip-rule="evenodd" d="M18.5638 17.4224L18.7813 17.2124C19.7188 16.3424 21.9088 14.2874 21.7438 11.8266C21.6456 10.4099 20.7988 9.12738 19.2321 8.00238L15.4663 5.33238C12.2188 3.02238 13.0206 1.15488 13.0513 1.08738C13.2163 0.76413 13.1263 0.35988 12.8263 0.14238C12.5338 -0.0676199 12.1213 -0.0451199 11.8596 0.20988L11.6406 0.41913C10.7113 1.28988 8.52058 3.34488 8.68633 5.80488C8.78383 7.22238 9.63133 8.50488 11.1988 9.62238L14.9556 12.2999C18.2113 14.6099 17.4088 16.4774 17.3788 16.5441C17.2138 16.8674 17.3038 17.2641 17.6038 17.4816C17.7321 17.5799 17.8888 17.6324 18.0471 17.6324C18.2346 17.6324 18.4221 17.5574 18.5638 17.4224ZM12.1434 23.7893L12.3616 23.58C13.2909 22.71 15.4816 20.655 15.3159 18.1943C15.2191 16.7775 14.3716 15.495 12.8041 14.3768L9.04664 11.6993C5.79089 9.38928 6.59414 7.52253 6.62414 7.45503C6.78839 7.13178 6.69839 6.73503 6.39914 6.51753C6.10664 6.30003 5.70089 6.32178 5.43914 6.57678L5.22089 6.78678C4.28339 7.65753 2.09414 9.71253 2.25839 12.1725C2.35664 13.59 3.20339 14.8725 4.77089 15.9975L8.53589 18.6668C11.7834 20.9768 10.9816 22.845 10.9509 22.9118C10.7859 23.235 10.8766 23.6393 11.1766 23.8568C11.3041 23.955 11.4616 24 11.6191 24C11.8066 24 11.9941 23.925 12.1434 23.7893Z" fill="black"/>
</svg>

<svg xmlns="http://www.w3.org/2000/svg" width="24" height="24" fill="none" viewBox="0 0 24 24"><path fill="currentColor" fill-rule="evenodd" d="m18.564 17.422.217-.21c.938-.87 3.128-2.925 2.963-5.385-.098-1.417-.945-2.7-2.512-3.825l-3.766-2.67c-3.247-2.31-2.445-4.177-2.415-4.245A.749.749 0 0 0 11.86.21l-.22.21c-.929.87-3.12 2.925-2.954 5.385.098 1.417.945 2.7 2.513 3.817l3.757 2.678c3.255 2.31 2.453 4.177 2.423 4.244a.74.74 0 0 0 .225.938.73.73 0 0 0 .96-.06m-6.42 6.367.218-.209c.929-.87 3.12-2.925 2.954-5.386-.097-1.416-.944-2.699-2.512-3.817l-3.757-2.678C5.79 9.39 6.594 7.523 6.624 7.455a.74.74 0 0 0-.225-.937.74.74 0 0 0-.96.059l-.218.21c-.938.87-3.127 2.926-2.963 5.385.099 1.418.945 2.7 2.513 3.826l3.765 2.669c3.247 2.31 2.446 4.178 2.415 4.245a.75.75 0 0 0 1.192.877" clip-rule="evenodd"/></svg>
